!!! OTL: Literature35
!!! Chapter: 5
!!! Section: I
!!! Page: 351
!!! Mode: 
!!! Encoder: DJB
**kern
*staff1
*I"Piano
=1-
*clefG2
*k[]
*C:
*M4/4
2r
4r
8r
8g/
=2
4g/
8cc\L
8cc\J
8b/L
8b/
8a/
8a/J
=3
4g/
4e/
4e/
8r
8g/
=4
4g/
4d/
4d/
8r
8g/
=5
4g/
4e/
4e/
8r
8g/
=6
4g/
8cc\L
8cc\J
8b/L
8b/
8a/
8a/J
=7
4g/
4e/
4.e/
8r
=8
!!linebreak:original
4.g/
8g/
4f/
8e/L
8d/J
=9
4c/
4c/
2r
==
*-
